images/tiles/t6.svg

<svg 
    xmlns="http://www.w3.org/2000/svg"
    width="1200" 
    height="1200">
    <g id="group">
        <path d="M400,0C400,220.9139,220.9139,400,0,400v-200c110.45695,0,200-89.54305,200-200h200Z" fill="#dee1e6" stroke-width="0"/>
        <path d="M1200,1000C1000,1000,800,800,800,0h200c0,110.45695,89.54305,200,200,200v200c-110.45695,0-200,89.54305-200,200s89.54305,200,200,200v200Z" fill="#dee1e6" stroke-width="0"/>
        <path d="M0,800c800,0,1000,200,1000,400h-200c0-110.45695-89.54305-200-200-200s-200,89.54305-200,200h-200c0-110.45695-89.54305-200-200-200v-200Z" fill="#dee1e6" stroke-width="0"/>
        <path d="M1000,0c0,110.45695,89.54305,200,200,200" fill="none" stroke="#292F33" stroke-width="30"/>
        <path d="M1200,400c-110.45695,0-200,89.54305-200,200s89.54305,200,200,200" fill="none" stroke="#292F33" stroke-width="30"/>
        <path d="M1200,1000C1000,1000,800,800,800,0" fill="none" stroke="#292F33" stroke-width="30"/>
        <path d="M0,200c110.45695,0,200-89.54305,200-200" fill="none" stroke="#292F33" stroke-width="30"/>
        <path d="M400,0C400,220.9139,220.9139,400,0,400" fill="none" stroke="#292F33" stroke-width="30"/>
        <path d="M800,1200c0-110.45695-89.54305-200-200-200s-200,89.54305-200,200" fill="none" stroke="#292F33" stroke-width="30"/>
        <path d="M200,1200c0-110.45695-89.54305-200-200-200" fill="none" stroke="#292F33" stroke-width="30"/>
        <path d="M0,800c800,0,1000,200,1000,400" fill="none" stroke="#292F33" stroke-width="30"/>
    </g>
</svg>

<svg xmlns="http://www.w3.org/2000/svg" width="1200" height="1200">
  <style>
    .fillColor {
      fill: #dee1e6;
    }
    .strokeColor {
      stroke: #292F33;
      stroke-width: 30;
    }
  </style>
  <g id="group">
    <path class="fillColor" style="stroke-width:0;" d="M400 0c0 221-179 400-400 400V200A200 200 0 0 0 200 0h200zM1200 1000c-200 0-400-200-400-1000h200a200 200 0 0 0 200 200v200a200 200 0 1 0 0 400v200zM0 800c800 0 1000 200 1000 400H800a200 200 0 1 0-400 0H200A200 200 0 0 0 0 1000V800z"/>
    <path class="strokeColor" style="fill:none;" d="M1000 0a200 200 0 0 0 200 200M1200 400a200 200 0 1 0 0 400M1200 1000c-200 0-400-200-400-1000M0 200A200 200 0 0 0 200 0M400 0c0 221-179 400-400 400M800 1200a200 200 0 1 0-400 0M200 1200A200 200 0 0 0 0 1000M0 800c800 0 1000 200 1000 400"/>
  </g>
</svg>
